lib/brands/icons/svelte.svg

<svg xmlns="http://www.w3.org/2000/svg" fill="none" aria-hidden="true" viewBox="0 0 48 48"><g id="svelte-Icon"><g id="Group"><path id="Vector" fill="#FF3E00" d="M37.0683 10.7632C33.7254 5.97872 27.1233 4.56057 22.3496 7.60203L13.9659 12.9454C11.6758 14.3861 10.0985 16.7247 9.62063 19.3877C9.2207 21.6061 9.57221 23.8946 10.6195 25.8908C9.90187 26.9794 9.41242 28.2022 9.18072 29.4853C8.69824 32.1994 9.32937 34.9935 10.9316 37.2367C14.2752 42.0217 20.8774 43.4392 25.6503 40.3979L34.034 35.0546C36.3242 33.6141 37.9016 31.2754 38.3793 28.6123C38.7792 26.3938 38.4279 24.1054 37.3812 22.109C38.0986 21.0205 38.5878 19.7977 38.8193 18.5147C39.3021 15.8005 38.671 13.0063 37.0684 10.7632"/><path id="Vector_2" fill="white" d="M21.5299 37.6919C18.8267 38.3948 15.9721 37.3367 14.3802 35.0417C13.4161 33.6924 13.0364 32.0116 13.3267 30.3788C13.3753 30.1135 13.4423 29.8518 13.5271 29.5957L13.685 29.1141L14.1146 29.4297C15.1069 30.1588 16.2163 30.7131 17.3951 31.0688L17.7068 31.1633L17.6781 31.4744C17.64 31.9169 17.7599 32.3587 18.0164 32.7213C18.4955 33.4126 19.3549 33.7316 20.169 33.5203C20.3513 33.4716 20.525 33.3952 20.6841 33.2939L29.0706 27.9496C29.4855 27.6883 29.7714 27.2647 29.8585 26.7821C29.9454 26.29 29.831 25.7836 29.541 25.3767C29.0616 24.6853 28.2019 24.3661 27.3875 24.5773C27.2055 24.626 27.032 24.7023 26.873 24.8035L23.6729 26.8435C23.1466 27.1781 22.5723 27.4303 21.9699 27.5914C19.2668 28.2942 16.4122 27.2361 14.8203 24.9411C13.8562 23.5918 13.4764 21.911 13.7668 20.2783C14.0541 18.6764 15.0031 17.2698 16.3807 16.4035L24.7664 11.0587C25.2929 10.7236 25.8676 10.4711 26.4705 10.31C29.1736 9.6072 32.0282 10.6653 33.6201 12.9602C34.5841 14.3095 34.9639 15.9904 34.6736 17.6231C34.6248 17.8884 34.5578 18.1501 34.4732 18.4062L34.3153 18.8878L33.8859 18.5727C32.8937 17.8432 31.7841 17.2887 30.6051 16.9329L30.2934 16.8384L30.3222 16.5273C30.3599 16.0848 30.2401 15.6432 29.9839 15.2804C29.5048 14.5891 28.6453 14.2701 27.8312 14.4814C27.649 14.5301 27.4753 14.6065 27.3161 14.7078L18.9297 20.0523C18.5149 20.3134 18.2291 20.737 18.1424 21.2195C18.0549 21.7115 18.1691 22.2181 18.4593 22.6251C18.9387 23.3165 19.7984 23.6356 20.6128 23.4245C20.795 23.3757 20.9687 23.2994 21.1279 23.1981L24.3276 21.1589C24.8536 20.8238 25.4279 20.5714 26.0304 20.4104C28.7335 19.7076 31.5881 20.7657 33.18 23.0606C34.1441 24.4099 34.5239 26.0908 34.2336 27.7235C33.946 29.3254 32.9971 30.7322 31.6196 31.5989L23.2338 36.9432C22.7074 37.2783 22.1327 37.5308 21.5298 37.6919"/></g></g></svg>

<svg xmlns="http://www.w3.org/2000/svg" fill="none" aria-hidden="true" viewBox="0 0 48 48"><path fill="#FF3E00" d="M37.068 10.763C33.725 5.98 27.123 4.561 22.35 7.602l-8.384 5.343a9.618 9.618 0 0 0-4.345 6.443 10.13 10.13 0 0 0 .998 6.503 9.645 9.645 0 0 0-1.438 3.594 10.25 10.25 0 0 0 1.75 7.752c3.344 4.785 9.946 6.202 14.72 3.16l8.383-5.342a9.616 9.616 0 0 0 4.345-6.443 10.13 10.13 0 0 0-.998-6.503 9.643 9.643 0 0 0 1.438-3.594 10.247 10.247 0 0 0-1.75-7.752"/><path fill="#fff" d="M21.53 37.692a6.661 6.661 0 0 1-7.15-2.65 6.164 6.164 0 0 1-1.053-4.663c.048-.266.115-.527.2-.783l.158-.482.43.316a10.819 10.819 0 0 0 3.28 1.639l.312.094-.029.311a1.88 1.88 0 0 0 .338 1.247 2.006 2.006 0 0 0 2.153.8c.182-.05.356-.126.515-.227l8.387-5.344c.414-.262.7-.685.787-1.168a1.863 1.863 0 0 0-.317-1.405 2.007 2.007 0 0 0-2.154-.8 1.848 1.848 0 0 0-.514.226l-3.2 2.04c-.526.335-1.1.587-1.703.748a6.661 6.661 0 0 1-7.15-2.65 6.164 6.164 0 0 1-1.053-4.663 5.783 5.783 0 0 1 2.614-3.874l8.385-5.345a6.113 6.113 0 0 1 1.705-.749 6.661 6.661 0 0 1 7.15 2.65 6.165 6.165 0 0 1 1.053 4.663 5.9 5.9 0 0 1-.2.783l-.159.482-.43-.315a10.812 10.812 0 0 0-3.28-1.64l-.312-.095.03-.31a1.884 1.884 0 0 0-.34-1.248 2.006 2.006 0 0 0-2.152-.799 1.849 1.849 0 0 0-.515.227l-8.386 5.344c-.415.261-.7.685-.788 1.168a1.86 1.86 0 0 0 .317 1.405 2.01 2.01 0 0 0 2.154.8c.182-.05.356-.126.515-.227l3.2-2.04a6.1 6.1 0 0 1 1.702-.748 6.661 6.661 0 0 1 7.15 2.65 6.165 6.165 0 0 1 1.054 4.664 5.787 5.787 0 0 1-2.614 3.875l-8.386 5.344a6.11 6.11 0 0 1-1.704.749"/></svg>
